assets/armor-warrior-epic.svg

<?xml version="1.0" encoding="UTF-8" standalone="no"?>
<svg
   xmlns:dc="http://purl.org/dc/elements/1.1/"
   xmlns:cc="http://creativecommons.org/ns#"
   xmlns:rdf="http://www.w3.org/1999/02/22-rdf-syntax-ns#"
   xmlns:svg="http://www.w3.org/2000/svg"
   xmlns="http://www.w3.org/2000/svg"
   xmlns:xlink="http://www.w3.org/1999/xlink"
   xmlns:sodipodi="http://sodipodi.sourceforge.net/DTD/sodipodi-0.dtd"
   xmlns:inkscape="http://www.inkscape.org/namespaces/inkscape"
   style="height: 45px; width: 45px;"
   viewBox="0 0 512 512"
   version="1.1"
   id="svg8"
   sodipodi:docname="armor-warrior-epic.svg"
   inkscape:version="0.92.4 (5da689c313, 2019-01-14)">
  <metadata
     id="metadata14">
    <rdf:RDF>
      <cc:Work
         rdf:about="">
        <dc:format>image/svg+xml</dc:format>
        <dc:type
           rdf:resource="http://purl.org/dc/dcmitype/StillImage" />
      </cc:Work>
    </rdf:RDF>
  </metadata>
  <defs
     id="defs12">
    <linearGradient
       id="linearGradient4550"
       inkscape:collect="always">
      <stop
         id="stop4538"
         offset="0"
         style="stop-color:#435655;stop-opacity:1" />
      <stop
         style="stop-color:#2c3233;stop-opacity:1"
         offset="0.0738594"
         id="stop4552" />
      <stop
         style="stop-color:#101010;stop-opacity:1"
         offset="0.20371164"
         id="stop4540" />
      <stop
         style="stop-color:#600119;stop-opacity:1"
         offset="0.25371954"
         id="stop4542" />
      <stop
         id="stop4544"
         offset="0.53679979"
         style="stop-color:#101010;stop-opacity:1" />
      <stop
         id="stop4546"
         offset="0.92813665"
         style="stop-color:#2c3233;stop-opacity:1" />
      <stop
         id="stop4548"
         offset="1"
         style="stop-color:#435655;stop-opacity:1" />
    </linearGradient>
    <linearGradient
       inkscape:collect="always"
       xlink:href="#linearGradient4550"
       id="linearGradient4586"
       gradientUnits="userSpaceOnUse"
       x1="187.688"
       y1="69.188004"
       x2="324.34399"
       y2="108.438"
       spreadMethod="repeat" />
    <linearGradient
       inkscape:collect="always"
       xlink:href="#linearGradient4550"
       id="linearGradient4588"
       gradientUnits="userSpaceOnUse"
       x1="23.180304"
       y1="40.464394"
       x2="157.99805"
       y2="133.2793"
       spreadMethod="repeat" />
    <linearGradient
       inkscape:collect="always"
       xlink:href="#linearGradient4550"
       id="linearGradient4590"
       gradientUnits="userSpaceOnUse"
       x1="499.77026"
       y1="56.020744"
       x2="492.9375"
       y2="168.46875"
       spreadMethod="repeat" />
    <linearGradient
       inkscape:collect="always"
       xlink:href="#linearGradient4550"
       id="linearGradient4600"
       gradientUnits="userSpaceOnUse"
       x1="317.21429"
       y1="155.075"
       x2="642.57611"
       y2="349.40698"
       spreadMethod="reflect" />
    <linearGradient
       inkscape:collect="always"
       xlink:href="#linearGradient4550"
       id="linearGradient4602"
       gradientUnits="userSpaceOnUse"
       x1="127.125"
       y1="176.936"
       x2="267.93188"
       y2="263.78751"
       spreadMethod="repeat" />
    <linearGradient
       inkscape:collect="always"
       xlink:href="#linearGradient4550"
       id="linearGradient4604"
       gradientUnits="userSpaceOnUse"
       x1="103.32738"
       y1="314.38309"
       x2="220"
       y2="385.09375"
       spreadMethod="repeat" />
    <linearGradient
       inkscape:collect="always"
       xlink:href="#linearGradient4550"
       id="linearGradient4606"
       gradientUnits="userSpaceOnUse"
       x1="275.12695"
       y1="368.7793"
       x2="714.11627"
       y2="253.888"
       spreadMethod="repeat" />
  </defs>
  <sodipodi:namedview
     pagecolor="#ffffff"
     bordercolor="#666666"
     borderopacity="1"
     objecttolerance="10"
     gridtolerance="10"
     guidetolerance="10"
     inkscape:pageopacity="0"
     inkscape:pageshadow="2"
     inkscape:window-width="2560"
     inkscape:window-height="1377"
     id="namedview10"
     showgrid="false"
     inkscape:zoom="1.4142136"
     inkscape:cx="157.52241"
     inkscape:cy="365.73413"
     inkscape:window-x="1912"
     inkscape:window-y="-8"
     inkscape:window-maximized="1"
     inkscape:current-layer="svg8" />
  <g
     id="g21946"
     transform="matrix(0.96080047,0,0,0.96080047,10.051043,10.401805)">
    <g
       style="fill:none;stroke:#000000;stroke-width:32;stroke-miterlimit:4;stroke-dasharray:none;stroke-opacity:1"
       id="g21921">
      <path
         style="fill:none;fill-opacity:1;stroke:#000000;stroke-width:32;stroke-miterlimit:4;stroke-dasharray:none;stroke-opacity:1"
         d="m 324.344,67.25 c -44.475,19.314 -91.03,25.953 -136.656,1.938 v 39.53 c 45.86,22.493 90.487,21.026 136.656,-0.28 z"
         id="path21907"
         inkscape:connector-curvature="0" />
      <path
         sodipodi:nodetypes="ccccccccccccccccc"
         inkscape:connector-curvature="0"
         id="path21909"
         d="m 133.71875,74.220703 c -6.80931,0.03506 -13.44762,0.37806 -19.875,1 -3.125,24.06 6.117,52.094297 24.625,73.779297 7.23,-4.935 13.7473,-10.2807 19.5293,-15.7207 -6.15,-19.57 -10.293,-38.9158 -11.625,-58.7168 -2.14,-0.095 -4.3235,-0.2705 -6.4375,-0.3125 -2.08135,-0.03999 -4.16247,-0.04128 -6.21485,-0.0293 z M 94.75,78.0625 C 81.052,80.9245 68.72575,85.428297 58.34375,91.654297 L 90.279297,170.2793 c 11.587003,-2.66 22.214953,-6.69305 31.876953,-11.62305 C 102.97625,135.18625 92.664,105.8945 94.75,78.0625 Z m -54.34375,28 c -13.318,14.436 -20.879297,34.40725 -20.529297,62.40625 17.887,4.688 34.461547,6.02555 49.685547,4.93555 C 53.492912,155.29476 43.166567,131.11581 40.40625,106.0625 Z"
         style="fill:none;fill-opacity:1;stroke:#000000;stroke-width:32;stroke-miterlimit:4;stroke-dasharray:none;stroke-opacity:1" />
      <path
         sodipodi:nodetypes="ccccccccccccccccc"
         inkscape:connector-curvature="0"
         id="path21911"
         d="m 379.06055,74.220703 c -2.05338,-0.01199 -4.13345,-0.01069 -6.2168,0.0293 -2.107,0.042 -4.27025,0.2175 -6.40625,0.3125 -1.33,19.8 -5.475,39.148747 -11.625,58.718747 5.783,5.44 12.29925,10.7857 19.53125,15.7207 18.507,-21.685 27.75,-49.721244 24.625,-73.781244 -6.44138,-0.62394 -13.08494,-0.964944 -19.90625,-1 z M 418.0625,78.0625 c -6.39928,24.64802 -8.22625,57.1218 -27.40625,80.5918 9.663,4.93 20.29,8.964 31.875,11.625 L 454.43945,91.625 C 442.19137,85.233303 429.28608,80.466615 418.0625,78.0625 Z m 54.34375,28 c -2.76,25.052 -13.08425,49.2328 -29.15625,67.3418 15.225,1.09 31.7995,-0.24655 49.6875,-4.93555 0.34999,-27.9993 -7.21387,-47.96933 -20.53125,-62.40625 z"
         style="fill:none;fill-opacity:1;stroke:#000000;stroke-width:32;stroke-miterlimit:4;stroke-dasharray:none;stroke-opacity:1" />
      <path
         style="fill:none;fill-opacity:1;stroke:#000000;stroke-width:32;stroke-miterlimit:4;stroke-dasharray:none;stroke-opacity:1"
         d="m 338.686,122.468 -0.873,0.436 c -24.024,11.837 -48.424,18.767 -72.907,20.28 v 214.095 c 73.59,-26.01 122.813,-81.045 122.813,-144.25 0,-13.11 -2.14,-25.886 -6.158,-38.155 -17.663,-9.017 -32.466,-20.5 -44,-32.063 l -4.093,-4.093 1.842,-5.47 c 1.205,-3.623 2.32,-7.217 3.375,-10.78 z"
         id="path21913"
         inkscape:connector-curvature="0" />
      <path
         style="fill:none;fill-opacity:1;stroke:#000000;stroke-width:32;stroke-miterlimit:4;stroke-dasharray:none;stroke-opacity:1"
         d="m 174.25,122.904 c 1.018,3.422 2.094,6.87 3.25,10.344 l 1.813,5.47 -4.063,4.093 c -12.424,12.456 -28.62,24.84 -48.125,34.125 -3.644,11.637 -5.563,23.723 -5.563,36.093 0,63.404 50.45,118.71 124.657,144.595 V 143.28 c -24.095,-1.254 -48.185,-7.88 -71.97,-20.374 z"
         id="path21915"
         inkscape:connector-curvature="0" />
      <path
         id="path21917"
         d="m 157,326.7207 c -5.933,4.816 -11.396,9.827 -16.5,15 22.033,17.485 50.57,35.56605 79.5,43.37305 5.045,-5.72 10.6093,-11.1635 16.7793,-16.3125 z m -29.06445,28.9043 c -6.25,7.537 -11.945,15.36 -17.25,23.375 23.228,18.444 53.698,37.55375 84.25,44.59375 3.68,-7.79 7.9002,-15.35475 12.7832,-22.59375 -30.46,-9.71 -58.19925,-28.08 -79.78125,-45.375 z m -27.21485,39.3125 c -5.852679,9.82254 -11.394974,19.86975 -16.9707,30.03125 28.236,27.185 59.2553,42.2943 95.2793,45.7793 2.33,-10.074 5.1662,-19.99425 8.6582,-29.65625 -33.071,-8.29775 -63.44509,-27.62881 -86.9668,-46.1543 z"
         style="fill:none;fill-opacity:1;stroke:#000000;stroke-width:32;stroke-miterlimit:4;stroke-dasharray:none;stroke-opacity:1"
         inkscape:connector-curvature="0" />
      <path
         id="path21919"
         d="m 354.90625,326.7207 -79.7793,42.0586 c 6.348,5.3 12.0568,10.91345 17.2168,16.81445 29.006,-7.38 57.7345,-25.30175 80.0625,-42.84375 -5.387,-5.534 -11.177,-10.8973 -17.5,-16.0293 z m 30,29.99805 c -21.83,17.33 -49.7575,35.531 -80.3125,44.875 4.804,7.193 8.96675,14.70455 12.59375,22.43555 30.588,-6.498 61.22425,-25.38505 84.78125,-43.87305 -5.26,-8.024 -10.8745,-15.8835 -17.0625,-23.4375 z m 27,39.4375 c -23.8,18.54 -54.345,37.58325 -87.5,45.40625 3.415,9.513 6.1807,19.27555 8.4707,29.18555 36.024,-3.485 67.0433,-18.5943 95.2793,-45.7793 -5.34573,-9.7455 -10.66431,-19.37696 -16.25,-28.8125 z"
         style="fill:none;fill-opacity:1;stroke:#000000;stroke-width:32;stroke-miterlimit:4;stroke-dasharray:none;stroke-opacity:1"
         inkscape:connector-curvature="0" />
    </g>
    <g
       id="g21905">
      <path
         inkscape:connector-curvature="0"
         id="path4584"
         d="m 324.344,67.25 c -44.475,19.314 -91.03,25.953 -136.656,1.938 v 39.53 c 45.86,22.493 90.487,21.026 136.656,-0.28 z"
         style="fill:url(#linearGradient4586);fill-opacity:1" />
      <path
         style="fill:url(#linearGradient4588);fill-opacity:1"
         d="m 133.71875,74.220703 c -6.80931,0.03506 -13.44762,0.37806 -19.875,1 -3.125,24.06 6.117,52.094297 24.625,73.779297 7.23,-4.935 13.7473,-10.2807 19.5293,-15.7207 -6.15,-19.57 -10.293,-38.9158 -11.625,-58.7168 -2.14,-0.095 -4.3235,-0.2705 -6.4375,-0.3125 -2.08135,-0.03999 -4.16247,-0.04128 -6.21485,-0.0293 z M 94.75,78.0625 C 81.052,80.9245 68.72575,85.428297 58.34375,91.654297 58.15075,120.9223 71.36,151.607 91.5,168.875 l -1.220703,1.4043 c 11.587003,-2.66 22.214953,-6.69305 31.876953,-11.62305 C 102.97625,135.18625 92.664,105.8945 94.75,78.0625 Z m -54.34375,28 c -13.318,14.436 -20.879297,34.40725 -20.529297,62.40625 17.887,4.688 34.461547,6.02555 49.685547,4.93555 C 53.492912,155.29476 43.166567,131.11581 40.40625,106.0625 Z"
         id="path4582"
         inkscape:connector-curvature="0" />
      <path
         style="fill:url(#linearGradient4590);fill-opacity:1"
         d="m 379.06055,74.220703 c -2.05338,-0.01199 -4.13345,-0.01069 -6.2168,0.0293 -2.107,0.042 -4.27025,0.2175 -6.40625,0.3125 -1.33,19.8 -5.475,39.14875 -11.625,58.71875 5.783,5.44 12.29925,10.7857 19.53125,15.7207 18.507,-21.685 27.75,-49.721247 24.625,-73.781247 -6.44138,-0.62394 -13.08494,-0.964944 -19.90625,-1 z M 418.0625,78.0625 c 2.086,27.83 -8.22625,57.1218 -27.40625,80.5918 9.663,4.93 20.29,8.964 31.875,11.625 l -1.2168,-1.4043 c 20.146,-17.273 33.33,-47.973 33.125,-77.25 -10.376,-6.215 -22.686,-10.7035 -36.375,-13.5625 z m 54.34375,28 c -2.76,25.052 -13.08425,49.2328 -29.15625,67.3418 15.225,1.09 31.7995,-0.24655 49.6875,-4.93555 0.34999,-27.9993 -7.21387,-47.96933 -20.53125,-62.40625 z"
         id="path4580"
         inkscape:connector-curvature="0" />
      <path
         inkscape:connector-curvature="0"
         id="path4570"
         d="m 338.686,122.468 -0.873,0.436 c -24.024,11.837 -48.424,18.767 -72.907,20.28 v 214.095 c 73.59,-26.01 122.813,-81.045 122.813,-144.25 0,-13.11 -2.14,-25.886 -6.158,-38.155 -17.663,-9.017 -32.466,-20.5 -44,-32.063 l -4.093,-4.093 1.842,-5.47 c 1.205,-3.623 2.32,-7.217 3.375,-10.78 z"
         style="fill:url(#linearGradient4600);fill-opacity:1" />
      <path
         inkscape:connector-curvature="0"
         id="path4568"
         d="m 174.25,122.904 c 1.018,3.422 2.094,6.87 3.25,10.344 l 1.813,5.47 -4.063,4.093 c -12.424,12.456 -28.62,24.84 -48.125,34.125 -3.644,11.637 -5.563,23.723 -5.563,36.093 0,63.404 50.45,118.71 124.657,144.595 V 143.28 c -24.095,-1.254 -48.185,-7.88 -71.97,-20.374 z"
         style="fill:url(#linearGradient4602);fill-opacity:1" />
      <path
         style="fill:url(#linearGradient4604);fill-opacity:1"
         d="m 157,326.7207 c -5.933,4.816 -11.396,9.827 -16.5,15 22.033,17.485 50.57,35.56605 79.5,43.37305 5.045,-5.72 10.6093,-11.1635 16.7793,-16.3125 z m -29.06445,28.9043 c -6.25,7.537 -11.945,15.36 -17.25,23.375 23.228,18.444 53.698,37.55375 84.25,44.59375 3.68,-7.79 7.9002,-15.35475 12.7832,-22.59375 -30.46,-9.71 -58.19925,-28.08 -79.78125,-45.375 z m -27.21485,39.3125 c -5.852679,9.82254 -11.394974,19.86975 -16.9707,30.03125 28.236,27.185 59.2553,42.2943 95.2793,45.7793 2.33,-10.074 5.1662,-19.99425 8.6582,-29.65625 -33.071,-8.29775 -63.44509,-27.62881 -86.9668,-46.1543 z"
         id="path4566"
         inkscape:connector-curvature="0" />
      <path
         style="fill:url(#linearGradient4606);fill-opacity:1"
         d="m 354.90625,326.7207 -79.7793,42.0586 c 6.348,5.3 12.0568,10.91345 17.2168,16.81445 29.006,-7.38 57.7345,-25.30175 80.0625,-42.84375 -5.387,-5.534 -11.177,-10.8973 -17.5,-16.0293 z m 30,29.99805 c -21.83,17.33 -49.7575,35.531 -80.3125,44.875 4.804,7.193 8.96675,14.70455 12.59375,22.43555 30.588,-6.498 61.22425,-25.38505 84.78125,-43.87305 -5.26,-8.024 -10.8745,-15.8835 -17.0625,-23.4375 z m 27,39.4375 c -23.8,18.54 -54.345,37.58325 -87.5,45.40625 3.415,9.513 6.1807,19.27555 8.4707,29.18555 36.024,-3.485 67.0433,-18.5943 95.2793,-45.7793 -5.34573,-9.7455 -10.66431,-19.37696 -16.25,-28.8125 z"
         id="path4564"
         inkscape:connector-curvature="0" />
    </g>
  </g>
</svg>

<?xml version="1.0" encoding="UTF-8" standalone="no"?>
<svg
   xmlns:dc="http://purl.org/dc/elements/1.1/"
   xmlns:cc="http://creativecommons.org/ns#"
   xmlns:rdf="http://www.w3.org/1999/02/22-rdf-syntax-ns#"
   xmlns:svg="http://www.w3.org/2000/svg"
   xmlns="http://www.w3.org/2000/svg"
   xmlns:xlink="http://www.w3.org/1999/xlink"
   xmlns:sodipodi="http://sodipodi.sourceforge.net/DTD/sodipodi-0.dtd"
   xmlns:inkscape="http://www.inkscape.org/namespaces/inkscape"
   style="height: 45px; width: 45px;"
   viewBox="0 0 512 512"
   version="1.1"
   id="svg8"
   sodipodi:docname="armor-warrior-epic.svg"
   inkscape:version="0.92.1 r15371">
  <metadata
     id="metadata14">
    <rdf:RDF>
      <cc:Work
         rdf:about="">
        <dc:format>image/svg+xml</dc:format>
        <dc:type
           rdf:resource="http://purl.org/dc/dcmitype/StillImage" />
      </cc:Work>
    </rdf:RDF>
  </metadata>
  <defs
     id="defs12">
    <linearGradient
       id="linearGradient4550"
       inkscape:collect="always">
      <stop
         id="stop4538"
         offset="0"
         style="stop-color:#435655;stop-opacity:1" />
      <stop
         style="stop-color:#2c3233;stop-opacity:1"
         offset="0.0738594"
         id="stop4552" />
      <stop
         style="stop-color:#101010;stop-opacity:1"
         offset="0.20371164"
         id="stop4540" />
      <stop
         style="stop-color:#600119;stop-opacity:1"
         offset="0.25371954"
         id="stop4542" />
      <stop
         id="stop4544"
         offset="0.53679979"
         style="stop-color:#101010;stop-opacity:1" />
      <stop
         id="stop4546"
         offset="0.92813665"
         style="stop-color:#2c3233;stop-opacity:1" />
      <stop
         id="stop4548"
         offset="1"
         style="stop-color:#435655;stop-opacity:1" />
    </linearGradient>
    <linearGradient
       inkscape:collect="always"
       xlink:href="#linearGradient4550"
       id="linearGradient4586"
       gradientUnits="userSpaceOnUse"
       x1="187.688"
       y1="69.188004"
       x2="324.34399"
       y2="108.438"
       spreadMethod="repeat" />
    <linearGradient
       inkscape:collect="always"
       xlink:href="#linearGradient4550"
       id="linearGradient4588"
       gradientUnits="userSpaceOnUse"
       x1="23.180304"
       y1="40.464394"
       x2="157.99805"
       y2="133.2793"
       spreadMethod="repeat" />
    <linearGradient
       inkscape:collect="always"
       xlink:href="#linearGradient4550"
       id="linearGradient4590"
       gradientUnits="userSpaceOnUse"
       x1="499.77026"
       y1="56.020744"
       x2="492.9375"
       y2="168.46875"
       spreadMethod="repeat" />
    <linearGradient
       inkscape:collect="always"
       xlink:href="#linearGradient4550"
       id="linearGradient4600"
       gradientUnits="userSpaceOnUse"
       x1="317.21429"
       y1="155.075"
       x2="642.57611"
       y2="349.40698"
       spreadMethod="reflect" />
    <linearGradient
       inkscape:collect="always"
       xlink:href="#linearGradient4550"
       id="linearGradient4602"
       gradientUnits="userSpaceOnUse"
       x1="127.125"
       y1="176.936"
       x2="267.93188"
       y2="263.78751"
       spreadMethod="repeat" />
    <linearGradient
       inkscape:collect="always"
       xlink:href="#linearGradient4550"
       id="linearGradient4604"
       gradientUnits="userSpaceOnUse"
       x1="103.32738"
       y1="314.38309"
       x2="220"
       y2="385.09375"
       spreadMethod="repeat" />
    <linearGradient
       inkscape:collect="always"
       xlink:href="#linearGradient4550"
       id="linearGradient4606"
       gradientUnits="userSpaceOnUse"
       x1="275.12695"
       y1="368.7793"
       x2="714.11627"
       y2="253.888"
       spreadMethod="repeat" />
  </defs>
  <sodipodi:namedview
     pagecolor="#ffffff"
     bordercolor="#666666"
     borderopacity="1"
     objecttolerance="10"
     gridtolerance="10"
     guidetolerance="10"
     inkscape:pageopacity="0"
     inkscape:pageshadow="2"
     inkscape:window-width="1920"
     inkscape:window-height="1017"
     id="namedview10"
     showgrid="false"
     inkscape:zoom="0.125"
     inkscape:cx="-3858.722"
     inkscape:cy="1320.7092"
     inkscape:window-x="-8"
     inkscape:window-y="-8"
     inkscape:window-maximized="1"
     inkscape:current-layer="svg8" />
  <rect
     fill="#000"
     fill-opacity="1"
     height="512"
     width="512"
     rx="64"
     ry="64"
     id="rect2" />
  <path
     inkscape:connector-curvature="0"
     id="path4584"
     d="m 324.344,67.25 c -44.475,19.314 -91.03,25.953 -136.656,1.938 v 39.53 c 45.86,22.493 90.487,21.026 136.656,-0.28 z"
     style="fill:url(#linearGradient4586);fill-opacity:1" />
  <path
     style="fill:url(#linearGradient4588);fill-opacity:1"
     d="M 133.71875 74.220703 C 126.90944 74.255759 120.27113 74.598763 113.84375 75.220703 C 110.71875 99.280703 119.96075 127.315 138.46875 149 C 145.69875 144.065 152.21605 138.7193 157.99805 133.2793 C 151.84805 113.7093 147.70505 94.3635 146.37305 74.5625 C 144.23305 74.4675 142.04955 74.292 139.93555 74.25 C 137.8542 74.210013 135.77308 74.208716 133.7207 74.220703 L 133.71875 74.220703 z M 94.75 78.0625 C 81.052 80.9245 68.72575 85.428297 58.34375 91.654297 C 58.15075 120.9223 71.36 151.607 91.5 168.875 L 90.279297 170.2793 C 101.8663 167.6193 112.49425 163.58625 122.15625 158.65625 C 102.97625 135.18625 92.664 105.8945 94.75 78.0625 z M 40.40625 106.0625 C 27.08825 120.4985 19.526953 140.46975 19.876953 168.46875 C 37.763953 173.15675 54.3385 174.4943 69.5625 173.4043 C 53.492912 155.29476 43.166567 131.11581 40.40625 106.0625 z "
     id="path4582" />
  <path
     style="fill:url(#linearGradient4590);fill-opacity:1"
     d="M 379.06055 74.220703 C 377.00717 74.208716 374.9271 74.210013 372.84375 74.25 C 370.73675 74.292 368.5735 74.4675 366.4375 74.5625 C 365.1075 94.3625 360.9625 113.71125 354.8125 133.28125 C 360.5955 138.72125 367.11175 144.06695 374.34375 149.00195 C 392.85075 127.31695 402.09375 99.280703 398.96875 75.220703 C 392.52737 74.596763 385.88381 74.255759 379.0625 74.220703 L 379.06055 74.220703 z M 418.0625 78.0625 C 420.1485 105.8925 409.83625 135.1843 390.65625 158.6543 C 400.31925 163.5843 410.94625 167.6183 422.53125 170.2793 L 421.31445 168.875 C 441.46045 151.602 454.64445 120.902 454.43945 91.625 C 444.06345 85.41 431.75345 80.9215 418.06445 78.0625 L 418.0625 78.0625 z M 472.40625 106.0625 C 469.64625 131.1145 459.322 155.2953 443.25 173.4043 C 458.475 174.4943 475.0495 173.15775 492.9375 168.46875 C 493.28749 140.46945 485.72363 120.49942 472.40625 106.0625 z "
     id="path4580" />
  <path
     inkscape:connector-curvature="0"
     id="path4570"
     d="m 338.686,122.468 -0.873,0.436 c -24.024,11.837 -48.424,18.767 -72.907,20.28 v 214.095 c 73.59,-26.01 122.813,-81.045 122.813,-144.25 0,-13.11 -2.14,-25.886 -6.158,-38.155 -17.663,-9.017 -32.466,-20.5 -44,-32.063 l -4.093,-4.093 1.842,-5.47 c 1.205,-3.623 2.32,-7.217 3.375,-10.78 z"
     style="fill:url(#linearGradient4600);fill-opacity:1" />
  <path
     inkscape:connector-curvature="0"
     id="path4568"
     d="m 174.25,122.904 c 1.018,3.422 2.094,6.87 3.25,10.344 l 1.813,5.47 -4.063,4.093 c -12.424,12.456 -28.62,24.84 -48.125,34.125 -3.644,11.637 -5.563,23.723 -5.563,36.093 0,63.404 50.45,118.71 124.657,144.595 V 143.28 c -24.095,-1.254 -48.185,-7.88 -71.97,-20.374 z"
     style="fill:url(#linearGradient4602);fill-opacity:1" />
  <path
     style="fill:url(#linearGradient4604);fill-opacity:1"
     d="M 157 326.7207 C 151.067 331.5367 145.604 336.5477 140.5 341.7207 C 162.533 359.2057 191.07 377.28675 220 385.09375 C 225.045 379.37375 230.6093 373.93025 236.7793 368.78125 L 157 326.7207 z M 127.93555 355.625 C 121.68555 363.162 115.99055 370.985 110.68555 379 C 133.91355 397.444 164.38355 416.55375 194.93555 423.59375 C 198.61555 415.80375 202.83575 408.239 207.71875 401 C 177.25875 391.29 149.5195 372.92 127.9375 355.625 L 127.93555 355.625 z M 100.7207 394.9375 C 94.868021 404.76004 89.325726 414.80725 83.75 424.96875 C 111.986 452.15375 143.0053 467.26305 179.0293 470.74805 C 181.3593 460.67405 184.1955 450.7538 187.6875 441.0918 C 154.6165 432.79405 124.24241 413.46299 100.7207 394.9375 z "
     id="path4566" />
  <path
     style="fill:url(#linearGradient4606);fill-opacity:1"
     d="M 354.90625 326.7207 L 275.12695 368.7793 C 281.47495 374.0793 287.18375 379.69275 292.34375 385.59375 C 321.34975 378.21375 350.07825 360.292 372.40625 342.75 C 367.01925 337.216 361.22925 331.8527 354.90625 326.7207 z M 384.90625 356.71875 C 363.07625 374.04875 335.14875 392.24975 304.59375 401.59375 C 309.39775 408.78675 313.5605 416.2983 317.1875 424.0293 C 347.7755 417.5313 378.41175 398.64425 401.96875 380.15625 C 396.70875 372.13225 391.09425 364.27275 384.90625 356.71875 z M 411.90625 396.15625 C 388.10625 414.69625 357.56125 433.7395 324.40625 441.5625 C 327.82125 451.0755 330.58695 460.83805 332.87695 470.74805 C 368.90095 467.26305 399.92025 452.15375 428.15625 424.96875 C 422.81052 415.22325 417.49194 405.59179 411.90625 396.15625 z "
     id="path4564" />
</svg>
